!!!!SEGMENT: pl-kk--i-545--011_anonim--o-duszo-wszelka.krn
!!!cenid: 18xx:4488
!!!COM: Anonim
!!!COM-rismID: pe30004985
!!!CDT:
!!!CNT:
!!!OTL: O duszo wszelka
!!!PDT:
!!!AGN: Sacred
!!!YEC: Copyright 2022 Narodowy Instytut Fryderyka Chopina (https://polishscores.org)
!!!YEM: License CC-BY-4.0 (https://creativecommons.org/licenses/by/4.0)
!!!SMS-siglum: PL-Kk
!!!SMS-shelfmark: I.545
!!!SMS-variant:
!!!SMS-altvar:
!!!SMS-shelfwork: 011 W
!!!NIFC-rismSourceID: 1001210831
!!!NIFC-rismChildID: 1001210991
!!!NIFC-islandoraID: pl-kk:17058
!!!URL-pdf-islandora: https://repozytorium.nifc.pl/islandora/object/pl-kk%3A17058/datastream/PDF/view
!!!URL-scan: https://polish.musicsources.pl/pl/lokalizacje/galeria/rekopisy/7172/9 @EN{Scan on Polish Music Sources Website} @PL{Skany w portalu Dziedzictwo Muzyki Polskiej w otwartym dostępie}
!!!IIIF:
!!!ONB-nifc: UWAGA: 7v
!!!OMD:
!!!AIN: 2 vox
!!!key: a
**kern	**text	**text	**kern	**text	**text
*part2	*part2	*part2	*part1	*part1	*part1
*staff2	*staff2	*staff2	*staff1	*staff1	*staff1
*I"[Voce]	*	*	*I"[Voce]	*	*
*Ivox	*	*	*Ivox	*	*
*ICvox	*	*	*ICvox	*	*
*clefF4	*	*	*clefG2	*	*
*k[]	*	*	*k[]	*	*
*a:	*	*	*a:	*	*
*M4/4	*	*	*M4/4	*	*
*met(c)	*	*	*met(c)	*	*
=1	=1	=1	=1	=1	=1
*^	*	*	*^	*	*
!	!	!	!	!	!LO:N:xstem	!	!
4E/	4AA\	.	O-	4cc/	4a\	O	.
4E/	4AA\	.	-glą-	4cc/	4a\	du-	.
4G/	4GG\	.	-daj	4dd/	4b\	-szo	.
!	!	!	!	!	!LO:N:xstem	!	!
4G/	4C\	.	na	4ee/	4cc\	wszel-	.
=2	=2	=2	=2	=2	=2	=2	=2
4F/	4D\	.	Krzy-	4dd/	4b\	-Ka	.
4E/	4BB\	.	-żu	4dd/	4g#X\	na-	.
4E/	4AA/	.	Je-	4cc/	4a\	-bo-	.
4E;/	4E\	.	-go	4b;/	4g#\	-żna	.
=3	=3	=3	=3	=3	=3	=3	=3
4F#X\	2ryy	.	sro-	4dd/	4a\	Ku	.
4G\	.	.	-mot-	4dd/	4b\	mi-	.
4G/	4E\	.	-nie	8ee/L	4b\	-łe-	.
.	.	.	.	8ff#X/J	.	.	.
4G/	4E\	.	za-	4gg/	4b\	-mu	.
!!LO:LB:g=original
=4	=4	=4	=4	=4	=4	=4	=4
4A/	4AA\	.	-wie-	4cc/ 4ff#X	4cc\	Bo-	.
4G/	4BB\	.	-szo-	4b/ 4ee	4b\	-gu	.
!LO:TX:t=P:problem=SIC:s=4F#/?	!	!	!	!	!	!	!
4F/	4BB\	.	-ne-	4dd#X/	4b\	słon-	.
4G/	4E\	.	-go	4ee/	4b\	-na	.
=5!|:	=5!|:	=5!|:	=5!|:	=5!|:	=5!|:	=5!|:	=5!|:
!	!	!	!	!	!LO:N:xstem	!	!
4G/	4C\	.	O-	4ee/	4cc\	Wej-	.
4G/	4E\	.	-Kru-	4ee/	4cc\	-rzyj	.
4G/	4G\	.	-tnie	4dd/	4b\	na	.
8A/	8A\	.	roz-	8cc/	8a\	Sy-	.
8G/	8G\	.	-cią-	8dd/	8b\	-na	.
=6	=6	=6	=6	=6	=6	=6	=6
4G/	(8C\L	.	-gnio-	4ee/	4cc\	Bo-	.
.	8E\J)	.	.	.	.	.	.
4A/	4F\	.	ne-	4dd/	4b\	-że-	.
2G#X/	2E\	.	-go	2ee/	2b\	-go,	.
=7	=7	=7	=7	=7	=7	=7	=7
4E/	4E\	.	wszy-	4b/	4g#X\	Na	.
4E/	4AA\	.	-stKie-	4cc/	4a\	Zba-	.
4Gn/	4GGn\	.	-go	4dd/	4b\	-wi-	.
4G/	4C\	.	ze-	4ee/	4cc\	-cie-	.
=8	=8	=8	=8	=8	=8	=8	=8
4F/	4D\	.	-Krwa-	4dd/	4b\	-la	.
4E/	4E\	.	-wio-	4cc/	4a\	na-	.
8E/L	8E\L	.	-ne-	4b/	4g#X\	-sze-	.
8D/J	8EE\J	.	.	.	.	.	.
4C/	4AA\;	.	-go	4a;/	4a\	-go	.
!!LO:LB:g=original
=9	=9	=9	=9	=9	=9	=9	=9
4G/	4C\	.	O-	4ee/	4cc\	Wej-	.
4E/ 4G#X	4E\	.	-Kru-	4ee/	4cc\	-rzyj	.
4G#/	4E\	.	-tnie	4dd/	4b\	na	.
8A/	8F\	.	roz-	8cc/	8a\	Sy-	.
8A/	8F\	.	-cią-	8dd/	8a\	-na	.
=10	=10	=10	=10	=10	=10	=10	=10
4E\	4ryy	.	-gnio-	4.ee/	4g#X\	Bo-	.
8F/L	4F\	.	-ne-	.	4a\	.	.
8A/J	.	.	.	8dd/	.	-że-	.
2G#X/	2E\	.	-go	2ee/	2b\	-go,	.
=11	=11	=11	=11	=11	=11	=11	=11
4E/	8E\L	.	wszys-	4b/	4g#X\	Na	.
.	8D\J	.	.	.	.	.	.
4E/	8C\L	.	tKie-	4cc/	4a\	Zba-	.
.	8AA\J	.	.	.	.	.	.
4G/	8GG\L	.	-go	4dd/	4b\	-wi-	.
.	16G\L	.	.	.	.	.	.
.	16F\JJ	.	.	.	.	.	.
4G/	8E\L	.	ze-	4ee/	[4cc\	-cie-	.
.	8C\J	.	.	.	.	.	.
=12	=12	=12	=12	=12	=12	=12	=12
4F/	4D\	.	-krwa-	4dd/	8cc\L]	-la	.
.	.	.	.	.	8b\J	.	.
4E/	8AA\L	.	-wio-	4cc/	8b\L	na-	.
.	8C\J	.	.	.	8a\J	.	.
8F/L	8D\L	.	-ne-	4b/	8a\L	-sze-	.
8E/J	8E\J	.	.	.	8g#X\J	.	.
4C/	4AA\	.	-go	4a;/	4a\	-go.	.
*v	*v	*	*	*	*	*	*
*	*	*	*v	*v	*	*
==	==	==	==	==	==
*-	*-	*-	*-	*-	*-
!!!system-decoration: {(s1,s2)}
!!!ENC: Filip Voros
!!!END: 2023-10-28
!!!EED: Marta Chmielewska
!!!EEV: 2024-04-22
